src/assets/flag-georgia.svg

<svg width="36" height="35" viewBox="0 0 36 35" fill="none" xmlns="http://www.w3.org/2000/svg">
<g clip-path="url(#clip0_353_113)">
<path d="M31.5828 4.86133H20.4022V15.0697H35.4717V8.75022C35.4717 7.71882 35.062 6.72967 34.3327 6.00036C33.6033 5.27105 32.6142 4.86133 31.5828 4.86133Z" fill="white"/>
<path d="M20.4022 4.86133H15.5411V15.0697H0.47168V19.9308H15.5411V30.1391H20.4022V19.9308H35.4717V15.0697H20.4022V4.86133Z" fill="#E8112D"/>
<path d="M28.5838 9.31908C28.6137 8.71207 28.6855 8.10786 28.7987 7.51074C28.2273 7.58172 27.6493 7.58172 27.0778 7.51074C27.1916 8.10866 27.2626 8.71338 27.2927 9.31908C26.6857 9.28916 26.0815 9.21737 25.4844 9.10421C25.5553 9.67563 25.5553 10.2536 25.4844 10.825C26.0815 10.7118 26.6857 10.64 27.2927 10.6102C27.2628 11.2172 27.191 11.8214 27.0778 12.4185C27.6493 12.3475 28.2273 12.3475 28.7987 12.4185C28.6855 11.8214 28.6137 11.2172 28.5838 10.6102C29.1908 10.6401 29.795 10.7119 30.3922 10.825C30.3212 10.2536 30.3212 9.67563 30.3922 9.10421C29.7933 9.21894 29.1895 9.28991 28.5838 9.31908Z" fill="#E8112D"/>
<path d="M15.5411 4.86133H4.36057C3.32917 4.86133 2.34002 5.27105 1.61071 6.00036C0.881401 6.72967 0.47168 7.71882 0.47168 8.75022L0.47168 15.0697H15.5411V4.86133Z" fill="white"/>
<path d="M8.65293 9.31859C8.68284 8.71158 8.75463 8.10737 8.86779 7.51025C8.29637 7.58123 7.71837 7.58123 7.14695 7.51025C7.2607 8.10817 7.33168 8.71289 7.36182 9.31859C6.75481 9.28867 6.1506 9.21688 5.55348 9.10373C5.62446 9.67514 5.62446 10.2531 5.55348 10.8246C6.15059 10.7113 6.75481 10.6396 7.36182 10.6097C7.3319 11.2167 7.26011 11.8209 7.14695 12.418C7.71837 12.3471 8.29637 12.3471 8.86779 12.418C8.75457 11.8209 8.68278 11.2167 8.65293 10.6097C9.25993 10.6396 9.86415 10.7114 10.4613 10.8246C10.3903 10.2531 10.3903 9.67514 10.4613 9.10373C9.86237 9.21845 9.25862 9.28942 8.65293 9.31859Z" fill="#E8112D"/>
<path d="M35.4717 26.2501V19.9307H20.4022V30.139H31.5828C32.6142 30.139 33.6033 29.7293 34.3327 29C35.062 28.2707 35.4717 27.2815 35.4717 26.2501Z" fill="white"/>
<path d="M28.5838 25.6815C28.614 26.2872 28.6849 26.8909 28.7987 27.4898C28.2273 27.4188 27.6493 27.4188 27.0778 27.4898C27.1916 26.8919 27.2626 26.2872 27.2927 25.6815C26.6857 25.7114 26.0815 25.7832 25.4844 25.8963C25.5553 25.3249 25.5553 24.7469 25.4844 24.1755C26.0823 24.2893 26.687 24.3602 27.2927 24.3904C27.2628 23.7834 27.191 23.1791 27.0778 22.582C27.6493 22.653 28.2273 22.653 28.7987 22.582C28.6855 23.1791 28.6137 23.7834 28.5838 24.3904C29.1908 24.3605 29.795 24.2887 30.3922 24.1755C30.3212 24.7469 30.3212 25.3249 30.3922 25.8963C29.7952 25.7822 29.1909 25.7104 28.5838 25.6815Z" fill="#E8112D"/>
<path d="M15.5411 19.9307H0.47168V26.2501C0.47168 27.2815 0.881401 28.2707 1.61071 29C2.34002 29.7293 3.32917 30.139 4.36057 30.139H15.5411V19.9307Z" fill="white"/>
<path d="M8.65293 25.6815C8.68307 26.2872 8.75404 26.8909 8.86779 27.4898C8.29637 27.4188 7.71837 27.4188 7.14695 27.4898C7.2607 26.8919 7.33168 26.2872 7.36182 25.6815C6.75481 25.7114 6.1506 25.7832 5.55348 25.8963C5.62446 25.3249 5.62446 24.7469 5.55348 24.1755C6.1514 24.2893 6.75612 24.3602 7.36182 24.3904C7.3319 23.7834 7.26011 23.1791 7.14695 22.582C7.71837 22.653 8.29637 22.653 8.86779 22.582C8.75457 23.1791 8.68278 23.7834 8.65293 24.3904C9.25993 24.3605 9.86415 24.2887 10.4613 24.1755C10.3903 24.7469 10.3903 25.3249 10.4613 25.8963C9.86429 25.7822 9.26001 25.7104 8.65293 25.6815Z" fill="#E8112D"/>
</g>
<defs>
<clipPath id="clip0_353_113">
<rect x="0.47168" width="35" height="35" fill="white"/>
</clipPath>
</defs>
</svg>

<svg xmlns="http://www.w3.org/2000/svg" width="36" height="35" fill="none"><g clip-path="url(#a)"><path fill="#fff" d="M31.583 4.861h-11.18V15.07h15.069V8.75a3.889 3.889 0 0 0-3.89-3.889Z"/><path fill="#E8112D" d="M20.402 4.861h-4.86V15.07H.471v4.86h15.07v10.21h4.86V19.93h15.07v-4.86h-15.07V4.86Z"/><path fill="#E8112D" d="M28.584 9.32c.03-.608.102-1.212.215-1.81a6.98 6.98 0 0 1-1.721 0c.114.599.185 1.203.215 1.81a13.202 13.202 0 0 1-1.809-.216c.071.572.071 1.15 0 1.721a13.177 13.177 0 0 1 1.809-.215c-.03.607-.102 1.211-.215 1.809a6.978 6.978 0 0 1 1.72 0 13.193 13.193 0 0 1-.214-1.809c.607.03 1.211.102 1.808.215a6.978 6.978 0 0 1 0-1.72c-.599.114-1.203.185-1.808.214Z"/><path fill="#fff" d="M15.541 4.861H4.361a3.889 3.889 0 0 0-3.89 3.89v6.319h15.07V4.86Z"/><path fill="#E8112D" d="M8.653 9.319c.03-.607.102-1.212.215-1.809a6.98 6.98 0 0 1-1.721 0c.114.598.185 1.203.215 1.809a13.204 13.204 0 0 1-1.809-.215 6.98 6.98 0 0 1 0 1.72 13.178 13.178 0 0 1 1.809-.214c-.03.607-.102 1.21-.215 1.808.571-.07 1.15-.07 1.72 0a13.182 13.182 0 0 1-.214-1.808c.607.03 1.211.101 1.808.215a6.978 6.978 0 0 1 0-1.721c-.599.114-1.202.185-1.808.215Z"/><path fill="#fff" d="M35.472 26.25v-6.32h-15.07V30.14h11.18a3.89 3.89 0 0 0 3.89-3.889Z"/><path fill="#E8112D" d="M28.584 25.681c.03.606.1 1.21.215 1.809a6.978 6.978 0 0 0-1.721 0 13.17 13.17 0 0 0 .215-1.808c-.607.03-1.212.101-1.809.214.071-.571.071-1.15 0-1.72.598.113 1.203.184 1.809.214a13.194 13.194 0 0 0-.215-1.808c.571.071 1.15.071 1.72 0a13.194 13.194 0 0 0-.214 1.808c.607-.03 1.211-.101 1.808-.215a6.978 6.978 0 0 0 0 1.721 12.901 12.901 0 0 0-1.808-.215Z"/><path fill="#fff" d="M15.541 19.93H.471v6.32a3.889 3.889 0 0 0 3.89 3.889h11.18V19.931Z"/><path fill="#E8112D" d="M8.653 25.681c.03.606.101 1.21.215 1.809a6.978 6.978 0 0 0-1.721 0c.114-.598.185-1.203.215-1.808-.607.03-1.211.101-1.809.214a6.98 6.98 0 0 0 0-1.72c.598.113 1.203.184 1.809.214a13.204 13.204 0 0 0-.215-1.808c.571.071 1.15.071 1.72 0a13.183 13.183 0 0 0-.214 1.808c.607-.03 1.211-.101 1.808-.215a6.978 6.978 0 0 0 0 1.721 12.901 12.901 0 0 0-1.808-.215Z"/></g><defs><clipPath id="a"><path fill="#fff" d="M.472 0h35v35h-35z"/></clipPath></defs></svg>
